icons/github-fill.svg

<svg xmlns="http://www.w3.org/2000/svg" width="24" height="24" fill="none"><g clip-path="url(#a)"><g><path fill="#121212" d="M12 2C6.475 2 2 6.475 2 12C1.99887 14.0993 2.65882 16.1456 3.88622 17.8487C5.11362 19.5517 6.84615 20.8251 8.838 21.488C9.338 21.575 9.525 21.275 9.525 21.012C9.525 20.775 9.512 19.988 9.512 19.15C7 19.613 6.35 18.538 6.15 17.975C6.037 17.687 5.55 16.8 5.125 16.562C4.775 16.375 4.275 15.912 5.112 15.9C5.9 15.887 6.462 16.625 6.65 16.925C7.55 18.437 8.988 18.012 9.562 17.75C9.65 17.1 9.912 16.663 10.2 16.413C7.975 16.163 5.65 15.3 5.65 11.475C5.65 10.387 6.037 9.488 6.675 8.787C6.575 8.537 6.225 7.512 6.775 6.137C6.775 6.137 7.612 5.875 9.525 7.163C10.3391 6.93706 11.1802 6.82334 12.025 6.825C12.875 6.825 13.725 6.937 14.525 7.162C16.437 5.862 17.275 6.138 17.275 6.138C17.825 7.513 17.475 8.538 17.375 8.788C18.012 9.488 18.4 10.375 18.4 11.475C18.4 15.313 16.063 16.163 13.838 16.413C14.2 16.725 14.513 17.325 14.513 18.263C14.513 19.6 14.5 20.675 14.5 21.013C14.5 21.275 14.688 21.587 15.188 21.487C17.173 20.8168 18.8979 19.541 20.1199 17.8392C21.3419 16.1373 21.9994 14.0951 22 12C22 6.475 17.525 2 12 2Z"/></g></g><defs><clipPath id="a"><rect width="24" height="24" fill="white"/></clipPath></defs></svg>

<svg width="24" height="24" fill="none" xmlns="http://www.w3.org/2000/svg"><g clip-path="url(#a)"><path d="M12 2C6.475 2 2 6.475 2 12a9.994 9.994 0 0 0 6.838 9.488c.5.087.687-.213.687-.476 0-.237-.013-1.024-.013-1.862-2.512.463-3.162-.612-3.362-1.175-.113-.288-.6-1.175-1.025-1.413-.35-.187-.85-.65-.013-.662.788-.013 1.35.725 1.538 1.025.9 1.512 2.338 1.087 2.912.825.088-.65.35-1.087.638-1.337-2.225-.25-4.55-1.113-4.55-4.938 0-1.088.387-1.987 1.025-2.688-.1-.25-.45-1.275.1-2.65 0 0 .837-.262 2.75 1.026a9.28 9.28 0 0 1 2.5-.338c.85 0 1.7.112 2.5.337 1.912-1.3 2.75-1.024 2.75-1.024.55 1.375.2 2.4.1 2.65.637.7 1.025 1.587 1.025 2.687 0 3.838-2.337 4.688-4.562 4.938.362.312.675.912.675 1.85 0 1.337-.013 2.412-.013 2.75 0 .262.188.574.688.474A10.016 10.016 0 0 0 22 12c0-5.525-4.475-10-10-10Z" /></g><defs><clipPath id="a"><path fill="#fff" d="M0 0h24v24H0z"/></clipPath></defs></svg>
